svgs/1F450-1F3FD.svg

<svg xmlns="http://www.w3.org/2000/svg" xmlns:xlink="http://www.w3.org/1999/xlink" preserveAspectRatio="none" viewBox="0 0 72 72"><defs><path id="a" fill="#CC9970" d="M59.15 47.4q-.9-.55-1.95-.2-3.05 1.05-4.65 3.35-1.6 2.25-1.55 5.4l.45 9.3q.1.8-.7 1.15-.8.4-1.25-.25-1.2-1.8-3.3-5.4l-1.85-3.3q-.95-1.7-6.25-12.35-5.25-10.5-5.5-10.9-1.05-1.8-2.4-2.65-1.5-.95-3-.4-1.7.6-2.35 1.9-.65 1.45.1 3.4l8.05 20-11.95-23.7q-.85-1.8-2.6-2.6t-3.3 0q-1.55.75-2 2.4-.45 1.65.4 3.5.35.8 11.5 23.5.45.9-.25 1.25-10.7-19.6-11.15-20.55-.95-1.75-2.25-2.45-1.5-.85-3.15-.1-1.6.8-2.15 2.45-.6 1.7.35 3.45L17 64.85q.3.75-.45 1.1L8.1 51q-2.15-2.75-5-1.15-3.1 1.8-1.45 5.85.35.8 9.15 18.15l4.25 7.75q4.65 8.25 6.9 10.75 2.05 2.3 3.55 3.35 2.25 1.7 5 2.55 2.7.85 6.05.7 3-.15 6-1.25l2.75-1.1q1.75-.7 2.7-1.3 2.5-1.3 4.85-3.05 2.4-1.85 4-3.65 1.85-2 2.85-3.95 1.05-1.85 1.55-3.8.4-1.3.5-3.1 0-1.5-.1-1.95l-.1-.7-1.45-26q-.05-1.1-.95-1.7z"/><path id="b" fill="#99674F" d="M21.5 45.6q.5 0 .4-.9-.6-4.3 1.7-7.45 1.2-1.6 2.75-2.5l-.55-.95q-3.75 2.35-4.7 6.65-.5 2.2-.25 3.85.1.9.4 1.2.1.1.25.1z"/><path id="c" fill="#CC9970" d="M97.45 31.3q-1.35.85-2.4 2.65Q85 54.2 83.3 57.2q-3.25 5.9-5.15 8.7-.45.65-1.25.3-.8-.4-.7-1.2l.45-9.3q.05-3.15-1.5-5.4-1.65-2.3-4.7-3.35-1.05-.35-1.95.25-.9.6-.95 1.65l-1.45 26-.1.7q-.1.45-.1 2 .1 1.95.45 3.05.6 2.05 1.6 3.85 1.05 1.95 2.85 3.9 1.6 1.8 4 3.65 2.45 1.8 4.85 3.1 1.55.85 2.65 1.25l2.75 1.15q3.1 1.05 6.05 1.25 3.2.15 6.05-.75 2.75-.85 5-2.55 1.5-1.05 3.55-3.35 3.6-4 11.15-18.5.5-.9 4.7-9.2 4.2-8.3 4.45-8.95 1.65-4.05-1.45-5.85-2.95-1.6-5 1.2l-8.45 14.9q-.45-.2-.5-.7l.05-.4 10.55-21.2q.95-1.75.35-3.45-.55-1.65-2.2-2.45-1.6-.75-3.1.1-1.3.7-2.25 2.45-.5.95-11.15 20.55-.75-.4-.25-1.3 3.15-6.55 11.5-23.45.85-1.85.4-3.5-.45-1.65-2-2.45-1.55-.75-3.3.05-1.75.8-2.6 2.6l-11.9 23.7 8-20q.75-2 .1-3.4-.65-1.35-2.35-1.95-1.5-.55-3 .4z"/><path id="d" fill="#99674F" d="M46 33.65l-.55 1q1.55.85 2.75 2.5 2.3 3.1 1.7 7.45v.45q.1.45.4.4l.3-.1q.3-.3.35-1.15.25-1.7-.25-3.85-.95-4.3-4.7-6.7z"/></defs><use transform="rotate(.078) scale(.56247)" xlink:href="#a"/><use xlink:href="#b"/><use transform="rotate(.078) scale(.56247)" xlink:href="#c"/><use xlink:href="#d"/></svg>

<svg xmlns="http://www.w3.org/2000/svg" version="1.1" xmlns:xlink="http://www.w3.org/1999/xlink" preserveAspectRatio="none" x="0px" y="0px" width="72px" height="72px" viewBox="0 0 72 72">
<defs>
<g id="Layer0_0_MEMBER_0_MEMBER_0_FILL">
<path fill="#CC9970" stroke="none" d="
M 59.15 47.4
Q 58.25 46.85 57.2 47.2 54.15 48.25 52.55 50.55 50.95 52.8 51 55.95
L 51.45 65.25
Q 51.55 66.05 50.75 66.4 49.95 66.8 49.5 66.15 48.3 64.35 46.2 60.75
L 44.35 57.45
Q 43.4 55.75 38.1 45.1 32.85 34.6 32.6 34.2 31.55 32.4 30.2 31.55 28.7 30.6 27.2 31.15 25.5 31.75 24.85 33.05 24.2 34.5 24.95 36.45
L 33 56.45 21.05 32.75
Q 20.2 30.95 18.45 30.15 16.7 29.35 15.15 30.15 13.6 30.9 13.15 32.55 12.7 34.2 13.55 36.05 13.9 36.85 25.05 59.55 25.5 60.45 24.8 60.8 14.1 41.2 13.65 40.25 12.7 38.5 11.4 37.8 9.9 36.95 8.25 37.7 6.65 38.5 6.1 40.15 5.5 41.85 6.45 43.6
L 17 64.85
Q 17.3 65.6 16.55 65.95
L 8.1 51
Q 5.95 48.25 3.1 49.85 0 51.65 1.65 55.7 2 56.5 10.8 73.85
L 15.05 81.6
Q 19.7 89.85 21.95 92.35 24 94.65 25.5 95.7 27.75 97.4 30.5 98.25 33.2 99.1 36.55 98.95 39.55 98.8 42.55 97.7
L 45.3 96.6
Q 47.05 95.9 48 95.3 50.5 94 52.85 92.25 55.25 90.4 56.85 88.6 58.7 86.6 59.7 84.65 60.75 82.8 61.25 80.85 61.65 79.55 61.75 77.75 61.75 76.25 61.65 75.8
L 61.55 75.1 60.1 49.1
Q 60.05 48 59.15 47.4 Z"/>
</g>

<g id="Layer0_0_MEMBER_0_MEMBER_1_FILL">
<path fill="#99674F" stroke="none" d="
M 21.5 45.6
Q 22 45.6 21.9 44.7 21.3 40.4 23.6 37.25 24.8 35.65 26.35 34.75
L 25.8 33.8
Q 22.05 36.15 21.1 40.45 20.6 42.65 20.85 44.3 20.95 45.2 21.25 45.5 21.35 45.6 21.5 45.6 Z"/>
</g>

<g id="Layer0_0_MEMBER_1_MEMBER_0_FILL">
<path fill="#CC9970" stroke="none" d="
M 97.45 31.3
Q 96.1 32.15 95.05 33.95 85 54.2 83.3 57.2 80.05 63.1 78.15 65.9 77.7 66.55 76.9 66.2 76.1 65.8 76.2 65
L 76.65 55.7
Q 76.7 52.55 75.15 50.3 73.5 48 70.45 46.95 69.4 46.6 68.5 47.2 67.6 47.8 67.55 48.85
L 66.1 74.85 66 75.55
Q 65.9 76 65.9 77.55 66 79.5 66.35 80.6 66.95 82.65 67.95 84.45 69 86.4 70.8 88.35 72.4 90.15 74.8 92 77.25 93.8 79.65 95.1 81.2 95.95 82.3 96.35
L 85.05 97.5
Q 88.15 98.55 91.1 98.75 94.3 98.9 97.15 98 99.9 97.15 102.15 95.45 103.65 94.4 105.7 92.1 109.3 88.1 116.85 73.6 117.35 72.7 121.55 64.4 125.75 56.1 126 55.45 127.65 51.4 124.55 49.6 121.6 48 119.55 50.8
L 111.1 65.7
Q 110.65 65.5 110.6 65
L 110.65 64.6 121.2 43.4
Q 122.15 41.65 121.55 39.95 121 38.3 119.35 37.5 117.75 36.75 116.25 37.6 114.95 38.3 114 40.05 113.5 41 102.85 60.6 102.1 60.2 102.6 59.3 105.75 52.75 114.1 35.85 114.95 34 114.5 32.35 114.05 30.7 112.5 29.9 110.95 29.15 109.2 29.95 107.45 30.75 106.6 32.55
L 94.7 56.25 102.7 36.25
Q 103.45 34.25 102.8 32.85 102.15 31.5 100.45 30.9 98.95 30.35 97.45 31.3 Z"/>
</g>

<g id="Layer0_0_MEMBER_1_MEMBER_1_FILL">
<path fill="#99674F" stroke="none" d="
M 46 33.65
L 45.45 34.65
Q 47 35.5 48.2 37.15 50.5 40.25 49.9 44.6
L 49.9 45.05
Q 50 45.5 50.3 45.45
L 50.6 45.35
Q 50.9 45.05 50.95 44.2 51.2 42.5 50.7 40.35 49.75 36.05 46 33.65 Z"/>
</g>
</defs>

<g id="Layer_1">
<g transform="matrix( 0.562469482421875, 0, 0, 0.562469482421875, 0,0) ">
<use xlink:href="#Layer0_0_MEMBER_0_MEMBER_0_FILL"/>
</g>

<g transform="matrix( 1, 0, 0, 1, 0,0) ">
<use xlink:href="#Layer0_0_MEMBER_0_MEMBER_1_FILL"/>
</g>

<g transform="matrix( 0.562469482421875, 0, 0, 0.562469482421875, 0,0) ">
<use xlink:href="#Layer0_0_MEMBER_1_MEMBER_0_FILL"/>
</g>

<g transform="matrix( 1, 0, 0, 1, 0,0) ">
<use xlink:href="#Layer0_0_MEMBER_1_MEMBER_1_FILL"/>
</g>
</g>
</svg>
